symbolic/48x48/apps/com.github.bilelmoussaoui.Authenticator.svg

<svg xmlns="http://www.w3.org/2000/svg" width="48" height="48" version="1">
 <path style="opacity:0.2" d="M 24.000265,6 C 15,6 14,14 14.000266,23 h 4.105577 C 18,14 20.23625,10 24.000265,10 27.764281,10 30,14 29.894687,23 h 4.105579 C 34,14 33,6 24.000265,6 Z"/>
 <rect style="opacity:0.2" width="28" height="28" x="-44" y="-38" rx="14" ry="14" transform="matrix(0,-1,-1,0,0,0)"/>
 <path style="fill:#b2bfd9" d="M 24.000265,5 C 15,5 14,13 14.000266,22 h 4.105577 C 18,13 20.23625,9 24.000265,9 27.764281,9 30,13 29.894687,22 h 4.105579 C 34,13 33,5 24.000265,5 Z"/>
 <path style="opacity:0.2;fill:#f4f4f7" d="M 24,5 C 14.999735,5 13.999734,13 14,22 h 0.01758 C 14.099504,13.42158 15.339163,6 24,6 c 8.660327,0 9.900023,7.42158 9.982422,16 H 34 C 33.999734,13 32.999735,5 24,5 Z"/>
 <rect style="fill:#a0a0a0" width="28" height="28" x="-43" y="-38" rx="14" ry="14" transform="matrix(0,-1,-1,0,0,0)"/>
 <rect style="fill:#4f4f4f" width="20" height="20" x="-39" y="-34" rx="10" ry="10" transform="matrix(0,-1,-1,0,0,0)"/>
 <path style="opacity:0.2" d="m 28.949219,25.051385 -2.121095,0.707031 -1.46289,0.488282 a 4,4 0 0 0 -4.193359,0.925781 4,4 0 0 0 0,5.65625 4,4 0 0 0 5.65625,0 4,4 0 0 0 0.925781,-4.193359 l 0.488282,-1.46289 z"/>
 <path style="fill:#ff5969" d="m 28.949219,24.050781 -2.121094,0.707031 -1.462891,0.488282 a 4,4 0 0 0 -4.193359,0.925781 4,4 0 0 0 0,5.65625 4,4 0 0 0 5.65625,0 4,4 0 0 0 0.925781,-4.193359 l 0.488282,-1.462891 z"/>
</svg>

<svg xmlns="http://www.w3.org/2000/svg" width="48" height="48" version="1"><path style="opacity:.2" d="M24 6c-9 0-10 8-10 17h4.106C18 14 20.236 10 24 10c3.764 0 6 4 5.895 13H34c0-9-1-17-10-17z"/><rect style="opacity:.2" width="28" height="28" x="-44" y="-38" rx="14" ry="14" transform="matrix(0 -1 -1 0 0 0)"/><path style="fill:#b2bfd9" d="M24 5c-9 0-10 8-10 17h4.106C18 13 20.236 9 24 9c3.764 0 6 4 5.895 13H34c0-9-1-17-10-17z"/><path style="opacity:.2;fill:#f4f4f7" d="M24 5c-9 0-10 8-10 17h.018C14.1 13.422 15.339 6 24 6c8.66 0 9.9 7.422 9.982 16H34c0-9-1-17-10-17z"/><rect style="fill:#a0a0a0" width="28" height="28" x="-43" y="-38" rx="14" ry="14" transform="matrix(0 -1 -1 0 0 0)"/><rect style="fill:#4f4f4f" width="20" height="20" x="-39" y="-34" rx="10" ry="10" transform="matrix(0 -1 -1 0 0 0)"/><path style="opacity:.2" d="m28.95 25.051-2.122.707-1.463.489a4 4 0 0 0-4.193.925 4 4 0 0 0 0 5.657 4 4 0 0 0 5.656 0 4 4 0 0 0 .926-4.194l.488-1.463z"/><path style="fill:#ff5969" d="m28.95 24.05-2.122.708-1.463.488a4 4 0 0 0-4.193.926 4 4 0 0 0 0 5.656 4 4 0 0 0 5.656 0 4 4 0 0 0 .926-4.193l.488-1.463z"/></svg>
